X: 28445
T: Mullingar Races, The
R: reel
M: 4/4
K: Dmajor
|:DEFD EA, ~A,2|DEFA Bcde|ffec dcBA|dBAF EGFE|
DEFD EA, ~A,2|DEFA Bcde|ffec dBAG|1 FGEF D2 A,C:|2 FGEF D2 (3ABc||
|:d2 fd adfd|afdf efBc|d2 fd adfd|{A}Beed egfe|
d2 fd adfd|afdf efBc|dgfe dBAG|1 FGEF D2 (3ABc:|2 FGEF D2 A,2||

